X:1
T:Title
%%score { ( 1 3 ) | ( 2 4 ) }
L:1/8
M:6/8
K:Db
V:1 treble nm="Grand Piano"
V:3 treble 
V:2 bass 
V:4 bass 
V:1
 z3 z2[Q:1/4=100] [FA] | [FA][_F=G][=FB] [DF][FB][Ad] | c3- c2 B | AAA [CE][FA][EG] | %4
[M:5/8] [DF]-[DF]- [DF]3 |[M:1/8] [FA] |[M:3/4] [FA][_F=G] [=FA][DF] [FA][Ad] | [Gc]4- [Gc][Gc] | %8
 [=GB][GB] [GB][Gd] [Gc][GB] |[M:5/8] A-A- A3 |[M:1/8] A |[M:3/4] d4 z2 | e4 z2 | %13
 [Af][Ge] [Fd][Ad] [Gc][Fd] |[M:7/8] e-e-e- e3 z |[M:3/4] [FA][FA] [FA] [Fd]2 [FA]/[FA]/ | %16
[M:7/8] BBB [=Ge]3 [Gd] |[M:3/4] cc cc de | d6 |] %19
V:2
 z3 z2 [D,D] | [D,D][D,D][D,D] [D,A,][D,D][F,D] | [A,EG]3- [A,EG]2 [A,DG] | %3
 [A,CG][A,CF][K:bass][A,CE] [A,,A,][A,,A,][A,,A,] |[M:5/8] [D,A,]-[D,A,]- [D,A,]3 |[M:1/8] [D,D] | %6
[M:3/4] [D,D][D,D] [D,D][D,A,] [D,D][F,D] | [A,E]4- [A,E][A,E] | %8
 [E,E][E,D] [E,C][E,B,] [E,E][E,D] |[M:5/8][K:treble] [A,C]-[A,C]- [A,C]3 |[M:1/8] [A,G] | %11
[M:3/4][K:bass] [D,A,][D,A,] [D,A,] [D,D]2 [F,D] | [A,CG][A,C] [A,C] [A,CG]2 [A,C] | %13
 [D,D][D,D] [D,D][D,D] [E,A,][D,A,] |[M:7/8] [A,,A,][C,A,][E,A,][K:treble] [A,C]3 [A,CG] | %15
[M:3/4][K:bass] [D,D][D,D] [D,D] [D,A,]2 [D,D]/[D,D]/ |[M:7/8] [G,DG][G,CG][G,B,G] [E,B,]3 [E,E] | %17
[M:3/4][K:treble] [A,EA][A,EA] [A,EA][A,EG] [A,DF][A,CG] | z C B, A,3 |] %19
V:3
 x6 | x6 | x6 | x6 |[M:5/8] x5 |[M:1/8] x |[M:3/4] x6 | x6 | x6 |[M:5/8] x5 |[M:1/8] x | %11
[M:3/4] FF F [FA]2 A | z G G A2 A | x6 |[M:7/8] GGG G3 A |[M:3/4] x6 |[M:7/8] x7 |[M:3/4] x6 | %18
 [DF]A G F3 |] %19
V:4
 x6 | x6 | x6 | x2[K:bass] x4 |[M:5/8] x5 |[M:1/8] x |[M:3/4] x6 | x6 | x6 |[M:5/8][K:treble] x5 | %10
[M:1/8] x |[M:3/4][K:bass] x6 | x6 | x6 |[M:7/8] x3[K:treble] x4 |[M:3/4][K:bass] x6 |[M:7/8] x7 | %17
[M:3/4][K:treble] x6 | D,6 |] %19

